X:53
T:El Cumbanchero
C:Jethro Burns
N:Transcribed by Jethro Burns
L:1/8
Q:1/4=160
M:4/4
K:C
z7/1A |: "Dm"[dF][dF] [dF][dF] [dF][dF] [dF][dF] | f[d2F2]a ^ga2A | [dF][dF] [dF][dF] [dF][dF] [dF][dF] | 
f[d2F2]a ^ga2d/e/ | "Dm"fd "C"ec "Bb"d_B "F"cA | "Bb"_BG "F"AF "A7"GE "Dm"FD | 
"A7"EE/E/ E/E/E/E/ EA/_B/ A/G/F/E/ |1 "Dm"D2 "A7"A,2 "Dm"D3/2D/ DA :|2 "Dm"D2 "A7"A,2 "Dm"D4 |] 
"D7"[ADC][A/D/C/][A/D/C/] [ADC][ADC] [^F2C2] [A2F2] | [c2^F2C2] [^d3/2F3/2C3/2]A/ =dc _BA | 
"Gm"[G_B,][G/B,/][G/B,/] [GB,][GB,] [GB,][G/B,/][G/B,/] [GB,][GB,] | [G2_B,2] [G2B,2] [G2B,2] [G2B,2] | 
"E7"[E^G,][E/G,/][E/G,/] [EG,][EG,] [^G2B,2] [B2G2] | [d2^G2] ef e2 [d2G2] | "A7"[a^cG][a/c/G/][a/c/G/] [a2c2G2] "Bb7"[_bd^G][b/d/G/][b/d/G/] [b2d2G2] | 
"A7"[a2^c2G2] "Bb7"[_b2d2^G2] "A7"[a3/2c3/2=G3/2][a/c/G/] [acG]D | "Dm"[dF][dF] [dF][dF] [dF][dF] [dF][dF] | 
f[d2F2]a ^ga2A | [dF][dF] [dF][dF] [dF][dF] [dF][dF] | f[d2F2]a ^ga2d/e/ | "Dm"fd "C"ec "Bb"d_B "F"cA | 
"Bb"_BG "F"AF "A7"GE "Dm"FD | "A7"EE/E/ E/E/E/E/ EA/_B/ A/G/F/E/ |: "Dm"d/A/F/A/ [^c/A,/]A/F/A/ =c/A/F/A/ B/A/F/A/ | 
d/A/F/A/ ^c/A/F/A/ =c/A/F/A/ B/A/F/A/ | d/A/F/A/ ^c/A/F/A/ =c/A/F/A/ B/A/F/A/ | 
_B/B/A/A/ G/G/B/B/ A/A/A/A/ Ad/e/ | "Dm"f/e/d/f/ "C"e/d/c/e/ "Bb"d/c/_B/d/ "F"c/B/A/c/ | 
"Bb"_B/A/G/B/ "F"A/G/F/A/ "A7"G/F/E/G/ "Dm"F/E/D/F/ | "A7"E/D/^C/=C/ ^C/D/E/F/ G/^G/A/_B/ A/=G/F/E/ | 
"Dm"D/^C/D/F/ "A7"E/D/C/E/ "Dm"D3A :| "D7"[ADC][A/D/C/][A/D/C/] [ADC][ADC] [^F2C2] [A2F2] | 
[c2^F2C2] [^d3/2F3/2C3/2]A/ =dc _BA | "Gm"Ga2g a3g | ag d^c =c_B G2 | "E7"[E^G,][E/G,/][E/G,/] [EG,][EG,] [^G2B,2] [B2G2] | 
[d2^G2] ef e2 [d2G2] | "A7"[a^cG][a/c/G/][a/c/G/] [a2c2G2] "Bb7"[_bd^G][b/d/G/][b/d/G/] [b2d2G2] | 
"A7"[a2^c2G2] "Bb7"[_b2d2^G2] "A7"[a3/2c3/2=G3/2][a/c/G/] [acG]A | "Dm"[dF][dF] [dF][dF] [dF][dF] [dF][dF] | 
f[d6F6]A | [dF][dF] [dF][dF] [dF][dF] [dF][dF] | f[d6F6]d/e/ | "Dm"fd "C"ec "Bb"d_B "F"cA | 
"Bb"_BG "F"AF "A7"GE "Dm"FD | "A7"EE/E/ E/E/E/E/ EA/_B/ A/G/F/E/ | "Dm"D2 "C"E2 "Bb"F2 "Gm"G2 | 
"Dm"A2 "A7"^c2 "Dm"d2 "A7"e2 | "Dm"f2 A2 "A7"^c2 e2 | "Dm"[a/d/F/][a/d/F/A,/][a/d/F/A,/][a/d/F/A,/] [a/d/F/A,/][a/d/F/A,/][a/d/F/A,/][a/d/F/A,/] [a4d4F4A,4] | 
K:F
[d'8f8A8D8] | 


